X: 545
T: Murphy Delany
%R: jig
B: "Twenty Four Country Dances for the Year 1805", Tho. Preston, ed. p.233 #1
F: http://folkopedia.efdss.org/images/archive/0/02/20121211105513%21Preston_24_1805.PDF
Z: 2014 John Chambers <jc:trillian.mit.edu>
M: 6/8
L: 1/8
K: Bb
|:\
TB>cB BcB | TBcB def | BcB cBc | c>dB AGF |\
TB>cB BcB | B>cB def | gab fed | c>dB AGF :|
|:\
d>ef fgf | fgf fed | efg gag | gag gfe |\
d>ef fgf | f>gf fga | gab fed | c>dB AGF :|
%%begintext align
%% 1st Cu. set to the 2d Lady hands 3 round. same
%% with the 2d Gent.n lead down the middle up again
%% right and left.
%%endtext

%%sep 1 1 500
%%sep 1 1 500
